T: Keel Row, The
M: 4/4
L: 1/8
K: Gmaj
|: c/ |B2 G>B c2 A>c | B2 G>B A>FD>c |\
B2 G>B c2 A>c | B>GA>F G2- G3/ :|
|: D/ |B>dd>g e2 d>c | B2 G>B A>FD>c |\
B>dd>g e2 d>c | B>GA>F G2- G3/ :|
